src/lib/packages/icons/src/assets/filled/grid-web-5.svg

<svg xmlns="http://www.w3.org/2000/svg" width="24" height="24" fill="none"><path fill="currentColor" d="M4 8.5v-3C4 4.5 4.5 4 5.5 4h13c1 0 1.5.5 1.5 1.5v3c0 1-.5 1.5-1.5 1.5h-13C4.5 10 4 9.5 4 8.5ZM5.5 20h13c1 0 1.5-.5 1.5-1.5v-3c0-1-.5-1.5-1.5-1.5h-13c-1 0-1.5.5-1.5 1.5v3c0 1 .5 1.5 1.5 1.5Z"/></svg>

<svg width="24" height="24" viewBox="0 0 24 24" fill="none" xmlns="http://www.w3.org/2000/svg">
<path d="M4 8.5V5.5C4 4.5 4.5 4 5.5 4H18.5C19.5 4 20 4.5 20 5.5V8.5C20 9.5 19.5 10 18.5 10H5.5C4.5 10 4 9.5 4 8.5ZM5.5 20H18.5C19.5 20 20 19.5 20 18.5V15.5C20 14.5 19.5 14 18.5 14H5.5C4.5 14 4 14.5 4 15.5V18.5C4 19.5 4.5 20 5.5 20Z" fill="currentColor"/>
</svg>
